build/images/fb-icons/legal-text.svg

<svg xmlns="http://www.w3.org/2000/svg" preserveAspectRatio="xMidYMid" width="21" height="15" viewBox="0 0 21 15"><defs><style>.cls-1{fill:#000;fill-rule:evenodd}</style></defs><path d="M10 15v-2h11v2H10zm5-6h6v2h-6V9zm2-4h4v2h-4V5zm-6.215 4.734c-.411.419-1.088.408-1.511-.02a1.106 1.106 0 0 1-.163-1.35L7.826 7.06 6.783 8.119c.039.336-.064.686-.318.943l-4.538 4.604a1.12 1.12 0 0 1-1.599 0 1.158 1.158 0 0 1 0-1.621l4.538-4.604a1.118 1.118 0 0 1 1.232-.249l.928-.943-1.283-1.303a1.065 1.065 0 0 1-1.331-.165c-.423-.429-.432-1.115-.02-1.533L7.307.289a1.06 1.06 0 0 1 1.512.02c.365.371.42.935.163 1.351l3.369 3.418c.41-.261.964-.205 1.33.165.422.428.432 1.114.02 1.532l-2.916 2.959z" class="cls-1"/></svg>

<svg xmlns="http://www.w3.org/2000/svg" xmlns:xlink="http://www.w3.org/1999/xlink" preserveAspectRatio="xMidYMid" width="21" height="15" viewBox="0 0 21 15">
  <defs>
    <style>
      .cls-1 {
        fill: #000;
        fill-rule: evenodd;
      }
    </style>
  </defs>
  <path d="M10.000,15.000 L10.000,13.000 L21.000,13.000 L21.000,15.000 L10.000,15.000 ZM15.000,9.000 L21.000,9.000 L21.000,11.000 L15.000,11.000 L15.000,9.000 ZM17.000,5.000 L21.000,5.000 L21.000,7.000 L17.000,7.000 L17.000,5.000 ZM10.785,9.734 C10.374,10.153 9.697,10.142 9.274,9.714 C8.909,9.343 8.854,8.780 9.111,8.364 L7.826,7.060 L6.783,8.119 C6.822,8.455 6.719,8.805 6.465,9.062 L1.927,13.666 C1.706,13.890 1.417,14.002 1.127,14.002 C0.838,14.002 0.549,13.890 0.328,13.666 C-0.113,13.218 -0.113,12.492 0.328,12.045 L4.866,7.441 C5.198,7.103 5.688,7.020 6.098,7.192 L7.026,6.249 L5.743,4.946 C5.334,5.208 4.779,5.152 4.412,4.781 C3.989,4.352 3.980,3.666 4.392,3.248 L7.307,0.289 C7.720,-0.129 8.396,-0.119 8.819,0.309 C9.184,0.680 9.239,1.244 8.982,1.660 L12.351,5.078 C12.761,4.817 13.315,4.873 13.681,5.243 C14.103,5.671 14.113,6.357 13.701,6.775 L10.785,9.734 Z" class="cls-1"/>
</svg>
